X: 40233
T: Tip-Top, The
R: polka
M: 2/4
K: Dmajor
FG|:AA A/B/A/G/|FF FD/E/|FF FA/F/|E/D/C/D/ EE/F/|
GG GB/G/|EE E>D|C/D/E/F/ G/A/B/c/|1 df dF/G/:|2 df dB/c/||
|:dB B/A/B/c/|dA AD/E/|FF ED|BA AB/c/|
dB B/A/B/c/|dA AD|C/D/E/F/ G/A/B/c/|1 df dB/c/:|2 d2 d||

